X: 43498
T: Yellow Wattle, The
R: jig
M: 6/8
K: Ddorian
|:dcA AGE|ABA ABc|dcA ABc|dcA AGE|
dcA AGE|ABA AGE|DED cde|dcA AGE:|
|:DED c3|ded c3|DED cde|dcA AGE|
DED c3|ded c2A|ABA ABc|dcA AGE:|

